X:1
T:Lord, in thy wrath, reprove me not
T:John Alcock jr.
T:Text: Thomas Sternhold, on Ps. 6
T:Edition by Edmund Gooch released into the public domain, June 2012. 
T:Lord, in thy wrath, reprove me not
T:Psalm 6
C:John Alcock jr.
Z:Text: Thomas Sternhold, on Ps. 6
%%score [ 1 2 3 4 ]
L:1/8
M:4/4
K:Dmin
V:1 treble nm="SOPRANO" snm="S."
V:2 treble nm="ALTO" snm="A."
V:3 treble-8 transpose=-12 nm="TENOR" snm="T."
V:4 bass nm="BASS" snm="B."
V:1
"^Slow" A8 | d4 ^c4 | d4 c4 | B4 B4 | (B4 A4) | c8 | f4 d4 | c4 B4 | A8 | c8 | c4 d4 | e4 c4 | %12
w: My|soul is|troub- led|ve- ry|sore, _|And|vex’d ex-|ceed- ing-|ly;|But,|Lord, how|long wilt|
w: Lord,|in thy|wrath, re-|prove me|not, _|Though|I de-|serve thine|ire:|Nor|yet cor-|rect me|
w: For|I am|weak, there-|fore, O|Lord, _|Of|mer- cy|me for-|bear;|And|heal me,|Lord, for|
 A4 T=B4 | c8 | A8 | d4 e4 | d4 T^c4 | !fermata!d8 |] %18
w: thou de-|lay|To|cure my|mi- se-|ry?|
w: in thy|rage,|O|Lord, I|thee de-|sire.|
w: why? thou|know’st|My|bones do|quake for|fear.|
V:2
 F8 | A4 A4 | F4 ^F4 | G4 G4 | (G4 ^F4) | F8 | F4 F4 | F4 TE4 | F8 | F8 | G4 G4 | G4 G4 | C4 F4 | %13
w: My|soul is|troub- led|ve- ry|sore, _|And|vex’d ex-|ceed- ing-|ly;|But,|Lord, how|long wilt|thou de-|
w: Lord,|in thy|wrath, re-|prove me|not, _|Though|I de-|serve thine|ire:|Nor|yet cor-|rect me|in thy|
w: For|I am|weak, there-|fore, O|Lord, _|Of|mer- cy|me for-|bear;|And|heal me,|Lord, for|why? thou|
 E8 | F8 | F4 G4 | F4 E4 | !fermata!D8 |] %18
w: lay|To|cure my|mi- se-|ry?|
w: rage,|O|Lord, I|thee de-|sire.|
w: know’st|My|bones do|quake for|fear.|
V:3
 d8 | d4 e4 | d4 A4 | B4 d4 | d8 | A8 | c4 B4 | A4 G4 | A8 | A8 | c4 =B4 | c4 G4 | A4 F4 | G8 | %14
w: My|soul is|troub- led|ve- ry|sore,|And|vex’d ex-|ceed- ing-|ly;|But,|Lord, how|long wilt|thou de-|lay|
w: Lord,|in thy|wrath, re-|prove me|not,|Though|I de-|serve thine|ire:|Nor|yet cor-|rect me|in thy|rage,|
w: For|I am|weak, there-|fore, O|Lord,|Of|mer- cy|me for-|bear;|And|heal me,|Lord, for|why? thou|know’st|
 c8 | B4 B4 | A6 A2 | !fermata!A8 |] %18
w: To|cure my|mi- se-|ry?|
w: O|Lord, I|thee de-|sire.|
w: My|bones do|quake for|fear.|
V:4
 D,8 | F,4 A,4 | B,4 A,4 | G,4 G,4 | D,8 | F,8 | A,4 B,4 | C4 C,4 | F,8 | %9
w: My|soul is|troub- led|ve- ry|sore,|And|vex’d ex-|ceed- ing-|ly;|
w: Lord,|in thy|wrath, re-|prove me|not,|Though|I de-|serve thine|ire:|
w: For|I am|weak, there-|fore, O|Lord,|Of|mer- cy|me for-|bear;|
"^Notes: Original clefs treble, alto, tenor, bass. Only the first verse of the text is given in the source: three subsequentverses have been added editorially. Figuring of the vocal bass line given in the source has been omitted from thisedition. The soprano Bb and alto G on beat 1 of bar 5 are printed in the source as small minim grace notes (slurredto the next notes, which are printed as semibreves), and have been here written out in full." F,8 | %10
w: But,|
w: Nor|
w: And|
 E,4 G,4 | C,4 E,4 | F,4 D,4 | C,8 | F,8 | B,4 G,4 | A,4 A,,4 | !fermata!D,8 |] %18
w: Lord, how|long wilt|thou de-|lay|To|cure my|mi- se-|ry?|
w: yet cor-|rect me|in thy|rage,|O|Lord, I|thee de-|sire.|
w: heal me,|Lord, for|why? thou|know’st|My|bones do|quake for|fear.|

